X:12896
T:Pasudoble
R:Pasudoble
C:Tradicional
S:Msica Tradicional Asturiana, (C) Tello & Tito. Asturies, 2001.
S:http://pagina.de/MusTradAst <telloytito@asturies.org>
A:Asturies
Z:Danzas y Bailes I
M:2/4
L:1/8
Q:1/4=126
K:F
|: AB|A3 G|AB cA|BA G2-|Gd de|dc cA|Ac cd|BB BA|GA Bc|A2 A2-|A2 :|
